X: 32963
T: Preston City, The
R: mazurka
M: 3/4
K: Gmajor
|:d/ B>A|G2 G>D G>B|G2 G>D G>B|d2 d>c B>c|A2- A>B A>F|
D2 F>D F>A|D2 F>D F>A|d2 d>c B>A|1 B2- B3/2:|2 G2- G3/2||
|:B/ (3DGB|d2 d>B G>g|e2 c2 A2|F2 F>A d>c|B>D G>B d>^c|
d>G B>d g>f|e2 c2 A2|(3FGA d>c B>A|G2- G3/2:|
K: CMaj
|:f/ e>d|c2 c>G E>G|c2 c>G E>G|e>d c>B A>G|F2- F>d ^c>d|
d2 d>B G>B|d2- d>B G>B|g>f e>d c>B|c2- c3/2:|

